flaticon/office/calendar.svg

<svg xmlns="http://www.w3.org/2000/svg" width="32" height="32" viewBox="0 0 24 24">
    <path d="M6 6.800781L2.800781 6.800781C2.558594 6.800781 2.398438 6.960938 2.398438 7.199219L2.398438 10.398438C2.398438 10.640625 2.558594 10.800781 2.800781 10.800781L6 10.800781C6.238281 10.800781 6.398438 10.640625 6.398438 10.398438L6.398438 7.199219C6.398438 6.960938 6.238281 6.800781 6 6.800781zM5.601562 10L3.199219 10 3.199219 7.601562 5.601562 7.601562zM11.601562 6.800781L8.398438 6.800781C8.160156 6.800781 8 6.960938 8 7.199219L8 10.398438C8 10.640625 8.160156 10.800781 8.398438 10.800781L11.601562 10.800781C11.839844 10.800781 12 10.640625 12 10.398438L12 7.199219C12 6.960938 11.839844 6.800781 11.601562 6.800781zM11.199219 10L8.800781 10 8.800781 7.601562 11.199219 7.601562zM14 10.800781L17.199219 10.800781C17.441406 10.800781 17.601562 10.640625 17.601562 10.398438L17.601562 7.199219C17.601562 6.960938 17.441406 6.800781 17.199219 6.800781L14 6.800781C13.761719 6.800781 13.601562 6.960938 13.601562 7.199219L13.601562 10.398438C13.601562 10.640625 13.761719 10.800781 14 10.800781zM14.398438 7.601562L16.800781 7.601562 16.800781 10 14.398438 10zM6 12.398438L2.800781 12.398438C2.558594 12.398438 2.398438 12.558594 2.398438 12.800781L2.398438 16C2.398438 16.238281 2.558594 16.398438 2.800781 16.398438L6 16.398438C6.238281 16.398438 6.398438 16.238281 6.398438 16L6.398438 12.800781C6.398438 12.558594 6.238281 12.398438 6 12.398438zM5.601562 15.601562L3.199219 15.601562 3.199219 13.199219 5.601562 13.199219zM11.601562 12.398438L8.398438 12.398438C8.160156 12.398438 8 12.558594 8 12.800781L8 16C8 16.238281 8.160156 16.398438 8.398438 16.398438L11.601562 16.398438C11.839844 16.398438 12 16.238281 12 16L12 12.800781C12 12.558594 11.839844 12.398438 11.601562 12.398438zM11.199219 15.601562L8.800781 15.601562 8.800781 13.199219 11.199219 13.199219zM6 18L2.800781 18C2.558594 18 2.398438 18.160156 2.398438 18.398438L2.398438 21.601562C2.398438 21.839844 2.558594 22 2.800781 22L6 22C6.238281 22 6.398438 21.839844 6.398438 21.601562L6.398438 18.398438C6.398438 18.160156 6.238281 18 6 18zM5.601562 21.199219L3.199219 21.199219 3.199219 18.800781 5.601562 18.800781zM11.601562 18L8.398438 18C8.160156 18 8 18.160156 8 18.398438L8 21.601562C8 21.839844 8.160156 22 8.398438 22L11.601562 22C11.839844 22 12 21.839844 12 21.601562L12 18.398438C12 18.160156 11.839844 18 11.601562 18zM11.199219 21.199219L8.800781 21.199219 8.800781 18.800781 11.199219 18.800781zM11.199219 21.199219"/>
    <path d="M 20 15.21875 L 20 2.800781 C 20 2.121094 19.480469 1.601562 18.800781 1.601562 L 17.199219 1.601562 L 17.199219 0.398438 C 17.199219 0.160156 17.039062 0 16.800781 0 L 15.199219 0 C 14.960938 0 14.800781 0.160156 14.800781 0.398438 L 14.800781 1.601562 L 5.199219 1.601562 L 5.199219 0.398438 C 5.199219 0.160156 5.039062 0 4.800781 0 L 3.199219 0 C 2.960938 0 2.800781 0.160156 2.800781 0.398438 L 2.800781 1.601562 L 1.199219 1.601562 C 0.519531 1.601562 0 2.121094 0 2.800781 L 0 22.800781 C 0 23.480469 0.519531 24 1.199219 24 L 19.601562 24 C 22.039062 24 24 22.039062 24 19.601562 C 24 17.292969 22.25 15.417969 20 15.21875 Z M 15.601562 0.800781 L 16.398438 0.800781 L 16.398438 1.601562 L 15.601562 1.601562 Z M 3.601562 0.800781 L 4.398438 0.800781 L 4.398438 1.601562 L 3.601562 1.601562 Z M 0.800781 2.800781 C 0.800781 2.558594 0.960938 2.398438 1.199219 2.398438 L 18.800781 2.398438 C 19.039062 2.398438 19.199219 2.558594 19.199219 2.800781 L 19.199219 4.800781 L 0.800781 4.800781 Z M 1.199219 23.199219 C 0.960938 23.199219 0.800781 23.039062 0.800781 22.800781 L 0.800781 5.601562 L 19.199219 5.601562 L 19.199219 15.199219 C 18.84375 15.238281 18.496094 15.320312 18.167969 15.4375 C 17.972656 15.503906 17.78125 15.582031 17.601562 15.675781 L 17.601562 12.800781 C 17.601562 12.558594 17.441406 12.398438 17.199219 12.398438 L 14 12.398438 C 13.761719 12.398438 13.601562 12.558594 13.601562 12.800781 L 13.601562 16 C 13.601562 16.238281 13.761719 16.398438 14 16.398438 L 16.574219 16.398438 C 16.105469 16.84375 15.734375 17.386719 15.496094 18 L 14 18 C 13.761719 18 13.601562 18.160156 13.601562 18.398438 L 13.601562 21.601562 C 13.601562 21.839844 13.761719 22 14 22 L 15.90625 22 C 16.210938 22.46875 16.605469 22.878906 17.0625 23.199219 Z M 15.207031 19.386719 C 15.207031 19.386719 15.207031 19.386719 15.203125 19.390625 C 15.203125 19.457031 15.199219 19.527344 15.199219 19.601562 C 15.199219 19.644531 15.199219 19.6875 15.203125 19.730469 C 15.203125 19.738281 15.203125 19.746094 15.203125 19.75 C 15.21875 20.261719 15.324219 20.75 15.496094 21.199219 L 14.398438 21.199219 L 14.398438 18.800781 L 15.273438 18.800781 C 15.238281 18.992188 15.214844 19.1875 15.207031 19.386719 Z M 16.800781 15.601562 L 14.398438 15.601562 L 14.398438 13.199219 L 16.800781 13.199219 Z M 19.601562 23.199219 C 18.28125 23.199219 17.136719 22.503906 16.511719 21.457031 C 16.503906 21.4375 16.492188 21.417969 16.480469 21.398438 C 16.320312 21.125 16.203125 20.839844 16.125 20.542969 C 16.121094 20.539062 16.121094 20.535156 16.121094 20.527344 C 16.113281 20.507812 16.109375 20.484375 16.101562 20.464844 C 16.09375 20.425781 16.085938 20.390625 16.078125 20.355469 C 16.074219 20.34375 16.074219 20.332031 16.070312 20.320312 C 16.058594 20.265625 16.050781 20.210938 16.042969 20.160156 C 16.042969 20.152344 16.039062 20.144531 16.039062 20.140625 C 16.03125 20.082031 16.023438 20.027344 16.019531 19.972656 C 16.019531 19.972656 16.019531 19.96875 16.019531 19.96875 C 16.011719 19.914062 16.007812 19.855469 16.003906 19.800781 C 16.003906 19.789062 16.003906 19.78125 16.003906 19.769531 C 16 19.714844 16 19.65625 16 19.601562 C 16 17.601562 17.601562 16 19.601562 16 C 21.601562 16 23.199219 17.601562 23.199219 19.601562 C 23.199219 21.601562 21.601562 23.199219 19.601562 23.199219 Z M 19.601562 23.199219"/>
    <path d="M 20.800781 19.199219 L 20 19.199219 L 20 17.199219 C 20 16.960938 19.839844 16.800781 19.601562 16.800781 C 19.359375 16.800781 19.199219 16.960938 19.199219 17.199219 L 19.199219 19.601562 C 19.199219 19.839844 19.359375 20 19.601562 20 L 20.800781 20 C 21.039062 20 21.199219 19.839844 21.199219 19.601562 C 21.199219 19.359375 21.039062 19.199219 20.800781 19.199219 Z M 20.800781 19.199219"/>
</svg>

<svg xmlns="http://www.w3.org/2000/svg" width="32" height="32" viewBox="0 0 24 24">
    <path d="M6 6.8H2.8c-.241 0-.402.16-.402.4v3.198c0 .243.16.403.403.403H6c.238 0 .398-.16.398-.403V7.2c0-.238-.16-.398-.398-.398zM5.602 10H3.199V7.602h2.403zm0 0M11.602 6.8H8.398C8.16 6.8 8 6.96 8 7.2v3.198c0 .243.16.403.398.403h3.204c.238 0 .398-.16.398-.403V7.2c0-.238-.16-.398-.398-.398zm-.403 3.2H8.801V7.602h2.398zm0 0M14 10.8h3.2c.241 0 .402-.16.402-.402V7.2c0-.238-.16-.398-.403-.398H14c-.238 0-.398.16-.398.398v3.2c0 .242.16.402.398.402zm.398-3.198h2.403V10h-2.403zm0 0M6 12.398H2.8c-.241 0-.402.16-.402.403V16c0 .238.16.398.403.398H6c.238 0 .398-.16.398-.398v-3.2c0-.241-.16-.402-.398-.402zm-.398 3.204H3.199v-2.403h2.403zm0 0M11.602 12.398H8.398c-.238 0-.398.16-.398.403V16c0 .238.16.398.398.398h3.204c.238 0 .398-.16.398-.398v-3.2c0-.241-.16-.402-.398-.402zm-.403 3.204H8.801v-2.403h2.398zm0 0M6 18H2.8c-.241 0-.402.16-.402.398v3.204c0 .238.16.398.403.398H6c.238 0 .398-.16.398-.398v-3.204c0-.238-.16-.398-.398-.398zm-.398 3.2H3.199v-2.4h2.403zm0 0M11.602 18H8.398c-.238 0-.398.16-.398.398v3.204c0 .238.16.398.398.398h3.204c.238 0 .398-.16.398-.398v-3.204c0-.238-.16-.398-.398-.398zm-.403 3.2H8.801v-2.4h2.398zm0 0"/>
    <path d="M20 15.219V2.8c0-.68-.52-1.2-1.2-1.2h-1.6V.399C17.2.16 17.04 0 16.8 0h-1.6c-.24 0-.4.16-.4.398v1.204H5.2V.398C5.2.16 5.04 0 4.8 0H3.2c-.24 0-.4.16-.4.398v1.204H1.2c-.68 0-1.2.52-1.2 1.199v20C0 23.48.52 24 1.2 24h18.402A4.388 4.388 0 0 0 24 19.602a4.384 4.384 0 0 0-4-4.383zM15.602.8h.796v.8h-.796zm-12 0h.796v.8h-.796zM.8 2.8c0-.242.16-.403.398-.403h17.602c.238 0 .398.16.398.403v2H.801zm.398 20.398c-.238 0-.398-.16-.398-.398V5.6h18.398V15.2c-.355.04-.703.121-1.031.239a4.032 4.032 0 0 0-.566.238V12.8c0-.242-.16-.403-.403-.403H14c-.238 0-.398.16-.398.403V16c0 .238.16.398.398.398h2.574c-.469.446-.84.989-1.078 1.602H14c-.238 0-.398.16-.398.398v3.204c0 .238.16.398.398.398h1.906c.305.469.7.879 1.156 1.2zm14.008-3.812l-.004.004c0 .066-.004.136-.004.21 0 .044 0 .087.004.13v.019c.016.512.121 1 .293 1.45h-1.098v-2.4h.875a4.137 4.137 0 0 0-.066.587zm1.594-3.785h-2.403v-2.403h2.403zm2.8 7.597a3.58 3.58 0 0 1-3.09-1.742.427.427 0 0 0-.03-.059 3.391 3.391 0 0 1-.356-.855c-.004-.004-.004-.008-.004-.016-.008-.02-.012-.043-.02-.062a5.086 5.086 0 0 0-.023-.11c-.004-.011-.004-.023-.008-.035-.011-.054-.02-.11-.027-.16 0-.008-.004-.015-.004-.02-.008-.058-.016-.113-.02-.167v-.004c-.007-.055-.011-.114-.015-.168v-.031C16 19.715 16 19.656 16 19.602c0-2 1.602-3.602 3.602-3.602 2 0 3.597 1.602 3.597 3.602 0 2-1.597 3.597-3.597 3.597zm0 0"/>
    <path d="M20.8 19.2H20v-2c0-.24-.16-.4-.398-.4-.243 0-.403.16-.403.4v2.402c0 .238.16.398.403.398H20.8c.238 0 .398-.16.398-.398 0-.243-.16-.403-.398-.403zm0 0"/>
</svg>
